svgs/sharp-light/soap.svg

<svg xmlns="http://www.w3.org/2000/svg" viewBox="0 0 512 512"><!--! Font Awesome Pro 6.6.0 by @fontawesome - https://fontawesome.com License - https://fontawesome.com/license (Commercial License) Copyright 2024 Fonticons, Inc. --><path d="M224 64a32 32 0 1 0 -64 0 32 32 0 1 0 64 0zm-96 0a64 64 0 1 1 128 0A64 64 0 1 1 128 64zM32 192l193.3 0c1.9 11.5 5.9 22.3 11.5 32L32 224l0 256 448 0 0-256-76.8 0c5.6-9.7 9.6-20.5 11.5-32l65.3 0 32 0 0 32 0 256 0 32-32 0L32 512 0 512l0-32L0 224l0-32 32 0zm80 80l208 0 80 0 32 0 0 32 0 96 0 32-32 0-288 0-32 0 0-32 0-96 0-32 32 0zm0 128l288 0 0-96-288 0 0 96zM400 64a16 16 0 1 0 0-32 16 16 0 1 0 0 32zm0-64a48 48 0 1 1 0 96 48 48 0 1 1 0-96zM352 176a32 32 0 1 0 -64 0 32 32 0 1 0 64 0zm-96 0a64 64 0 1 1 128 0 64 64 0 1 1 -128 0z"/></svg>

<svg xmlns="http://www.w3.org/2000/svg" viewBox="0 0 512 512"><!--! Font Awesome Pro 6.4.2 by @fontawesome - https://fontawesome.com License - https://fontawesome.com/license (Commercial License) Copyright 2023 Fonticons, Inc. --><path d="M224 64a32 32 0 1 0 -64 0 32 32 0 1 0 64 0zm-96 0a64 64 0 1 1 128 0A64 64 0 1 1 128 64zM32 192H225.3c1.9 11.5 5.9 22.3 11.5 32H32V480H480V224H403.2c5.6-9.7 9.6-20.5 11.5-32H480h32v32V480v32H480 32 0V480 224 192H32zm80 80H320h80 32v32 96 32H400 112 80V400 304 272h32zm0 128H400V304H112v96zM400 64a16 16 0 1 0 0-32 16 16 0 1 0 0 32zm0-64a48 48 0 1 1 0 96 48 48 0 1 1 0-96zM352 176a32 32 0 1 0 -64 0 32 32 0 1 0 64 0zm-96 0a64 64 0 1 1 128 0 64 64 0 1 1 -128 0z"/></svg>
